Newaita-dark/apps/16/kvantum.svg

<svg height="16" viewBox="0 0 16 16" width="16" xmlns="http://www.w3.org/2000/svg" xmlns:xlink="http://www.w3.org/1999/xlink"><linearGradient id="a" gradientUnits="userSpaceOnUse" x1="7.93826" x2="7.93826" y1="14.0169685" y2="14.67849050002"><stop offset="0" stop-opacity=".27451"/><stop offset="1" stop-opacity="0"/></linearGradient><linearGradient id="b"><stop offset="0" stop-opacity=".313726"/><stop offset=".222222" stop-opacity=".27451"/><stop offset="1" stop-opacity="0"/></linearGradient><radialGradient id="c" cx="450.908936" cy="189.579361" gradientTransform="matrix(.00000009 -.0390662 -.0703192 -.00000005 26.561465 31.797666)" gradientUnits="userSpaceOnUse" r="21.166656" xlink:href="#b"/><radialGradient id="d" cx="450.908936" cy="189.579361" gradientTransform="matrix(-.00000009 .0390662 .0703192 .00000005 -10.60226 -3.763739)" gradientUnits="userSpaceOnUse" r="21.166656" xlink:href="#b"/><radialGradient id="e" cx="450.908936" cy="189.579361" gradientTransform="matrix(-.00000009 -.0390662 .0703192 -.00000005 -10.60226 31.797666)" gradientUnits="userSpaceOnUse" r="21.166656" xlink:href="#b"/><radialGradient id="f" cx="450.908936" cy="189.579361" gradientTransform="matrix(.00000009 .0390662 -.0703192 .00000005 26.561464 -3.76374)" gradientUnits="userSpaceOnUse" r="21.166656" xlink:href="#b"/><linearGradient id="g" gradientUnits="userSpaceOnUse" x1="7.938262" x2="7.938262" y1="1.44805200003" y2="14.0169665"><stop offset="0" stop-color="#7986cb"/><stop offset="1" stop-color="#5c6bc0"/></linearGradient><linearGradient id="h" gradientUnits="userSpaceOnUse" x1="7.938262" x2="7.938262" y1="1.44805200003" y2="14.0169665"><stop offset="0" stop-color="#4db6ac"/><stop offset="1" stop-color="#26a69a"/></linearGradient><linearGradient id="i" gradientUnits="userSpaceOnUse" x1="7.938262" x2="7.938262" y1="1.44805200003" y2="14.0169665"><stop offset="0" stop-color="#ffb74d"/><stop offset="1" stop-color="#ffa726"/></linearGradient><linearGradient id="j" gradientUnits="userSpaceOnUse" x1="7.9382592" x2="7.9382592" y1="14.01696600048" y2="1.44805535241"><stop offset="0" stop-color="#bdbdbd"/><stop offset="1" stop-color="#e0e0e0"/></linearGradient><path d="m2.226562 1.46875h11.425782c.40625 0 .734375.328125.734375.734375v11.058594c0 .40625-.328125.738281-.734375.738281h-11.425782c-.40625 0-.738281-.332031-.738281-.738281v-11.058594c0-.40625.332031-.734375.738281-.734375zm0 0" fill="#7986cb" fill-opacity=".716129"/><path d="m2.5625 14.015625h10.832031v.664063h-10.832031zm0 0" fill="url(#a)"/><path d="m13.394531 14.015625h1.324219v-.660156h-1.324219zm0 0" fill="url(#c)"/><path d="m2.5625 14.015625h-1.320312v.664063h1.320312zm0 0" fill="url(#d)"/><path d="m2.5625 14.015625h-1.320312v-.660156h1.320312zm0 0" fill="url(#e)"/><path d="m13.394531 14.015625h1.324219v.664063h-1.324219zm0 0" fill="url(#f)"/><path d="m2.226562 1.46875c-.410156 0-.738281.328125-.738281.734375v11.058594c0 .40625.328125.738281.738281.738281h11.425782c.40625 0 .734375-.332031.734375-.738281v-11.058594c0-.40625-.328125-.734375-.734375-.734375zm0 0" fill="url(#g)"/><path d="m11.886719 1.46875-10.398438 9.097656v2.695313c0 .40625.328125.738281.738281.738281h11.425782c.40625 0 .734375-.332031.734375-.738281v-11.058594c0-.40625-.328125-.734375-.734375-.734375zm0 0" fill="url(#h)"/><path d="m14.386719 4.25-10.398438 9.75h9.664063c.40625 0 .734375-.332031.734375-.738281zm0 0" fill="url(#i)"/><path d="m5.617188 3.257812c-.277344.003907-.496094.230469-.492188.503907v3.585937c-.007812.039063-.007812.078125 0 .117188v2.914062c-.003906.179688.089844.347656.246094.4375s.347656.089844.503906 0 .25-.257812.246094-.4375v-2.800781l.324218-.394531 2.039063 4.078125c.082031.167969.25.273437.433594.277343.183593.003907.355469-.089843.445312-.25l2.648438-4.632812c.089843-.152344.089843-.347656 0-.503906-.089844-.15625-.257813-.25-.4375-.25-.179688.003906-.34375.101562-.429688.257812l-2.183593 3.820313-1.824219-3.640625 1.847656-2.261719c.128906-.148437.15625-.359375.070313-.539063-.085938-.175781-.269532-.285156-.464844-.28125-.148438.003907-.285156.074219-.375.1875l-2.09375 2.558594v-2.242187c.003906-.132813-.050782-.261719-.144532-.359375-.097656-.09375-.226562-.148438-.359374-.144532zm0 0" fill="url(#j)"/><path d="m5.617188 3.257812c-.277344.003907-.496094.230469-.492188.503907v.167969c-.003906-.277344.214844-.503907.492188-.507813.132812 0 .261718.050781.359374.148437.09375.09375.148438.222657.144532.359376v-.167969c.003906-.132813-.050782-.261719-.144532-.359375-.097656-.09375-.226562-.148438-.359374-.144532zm2.972656 0c-.148438.003907-.285156.074219-.375.1875l-2.09375 2.558594v.164063l2.09375-2.554688c.089844-.117187.226562-.183593.375-.1875.25-.007812.464844.171875.507812.414063.023438-.144532-.019531-.296875-.117187-.410156-.097657-.113282-.242188-.175782-.390625-.171876zm2.992187 2.644532c-.183593 0-.351562.101562-.4375.257812l-2.183593 3.820313-1.742188-3.480469-.082031.097656.050781.101563.03125-.035157 1.742188 3.484376 2.183593-3.820313c.085938-.160156.253907-.257813.4375-.257813.242188 0 .449219.175782.488281.417969.027344-.144531-.015624-.292969-.109374-.40625s-.230469-.175781-.378907-.179687zm-6.457031 1.445312c-.007812.039063-.007812.078125 0 .117188zm0 0" fill="#fff" fill-opacity=".716129"/><path d="m9.058594 3.949219c-.019532.039062-.042969.078125-.074219.113281l-1.847656 2.257812.128906.257813 1.71875-2.101563c.125-.148437.152344-.355468.074219-.527343zm2.976562 2.644531c-.007812.015625-.015625.03125-.023437.046875l-2.648438 4.628906c-.089843.160157-.261719.257813-.445312.253907-.183594-.007813-.351563-.113282-.433594-.277344l-2.039063-4.078125-.324218.394531v.414062l.324218-.394531 2.039063 4.078125c.082031.164063.25.269532.433594.273438.183593.007812.355469-.089844.445312-.25l2.648438-4.628906c.082031-.140626.089843-.3125.023437-.460938zm-6.910156 1.148438c-.007812.039062-.007812.082031 0 .121093zm0 2.621093v.410157c-.003906.179687.089844.347656.246094.4375.15625.089843.347656.089843.503906 0 .15625-.089844.25-.257813.246094-.4375v-.410157c.003906.179688-.089844.34375-.246094.433594-.15625.09375-.347656.09375-.503906 0-.15625-.089844-.25-.253906-.246094-.433594zm0 0" fill-opacity=".235294"/><path d="m679.305244 393.978146c-33.540106.472396-59.994274 27.871355-59.521878 60.939065v433.659398c-.944792 4.723959-.944792 9.447917 0 14.171876v352.40731c-.472396 21.73021 10.865105 42.043232 29.760939 52.908336 18.895834 10.865105 42.043231 10.865105 60.939066 0 18.895834-10.865104 30.233335-31.178126 29.760939-52.908336v-338.70783l39.208856-47.711982 246.590638 493.181276c9.920313 20.313022 30.233335 33.06771 52.43594 33.540106 22.202606.472396 42.988023-10.865105 53.853128-30.233335l320.284392-560.261488c10.865105-18.423438 10.865105-42.043231 0-60.939065-10.865105-18.895835-31.178127-30.233335-52.908336-30.233335-21.73021.472396-41.570836 12.282292-51.963545 31.178126l-264.069284 462.00315-220.608866-440.27294 223.443241-273.517202c15.589063-17.951043 18.895834-43.460419 8.503125-65.190629-10.392709-21.257813-32.595314-34.484897-56.215107-34.012501-17.951043.472396-34.484898 8.975521-45.350002 22.675001l-253.20418 309.419287v-271.155223c.472396-16.061459-6.141146-31.650522-17.478647-43.460419-11.809896-11.3375-27.39896-17.951042-43.460419-17.478646zm0 0" fill="none" stroke="#212121" stroke-linecap="round" stroke-linejoin="round" stroke-width="11.338583" transform="scale(.00826902)"/><path d="m2.226562 1.46875c-.410156 0-.738281.328125-.738281.734375v.148437c0-.410156.328125-.738281.738281-.738281h11.425782c.40625 0 .734375.328125.734375.738281v-.148437c0-.40625-.328125-.734375-.734375-.734375zm0 0" fill="#fff" fill-opacity=".392157"/><path d="m2.226562 14.015625c-.410156 0-.738281-.328125-.738281-.734375v-.207031c0 .40625.328125.734375.738281.734375h11.425782c.40625 0 .734375-.328125.734375-.734375v.207031c0 .40625-.328125.734375-.734375.734375zm0 0" fill-opacity=".235294"/><path d="m68.743435-168.629428h370.464623c11.748878 0 21.122983 9.499093 21.122983 21.122983v359.840637c0 11.748878-9.374105 21.122982-21.122983 21.122982h-370.464623c-11.62389 0-21.122983-9.374104-21.122983-21.122982v-359.840637c0-11.62389 9.499093-21.122983 21.122983-21.122983zm0 0" fill="none" stroke="#212121" stroke-linecap="round" stroke-linejoin="round" stroke-width="3" transform="matrix(.031253 0 0 .031253 0 6.719392)"/></svg>

<?xml version="1.0" encoding="UTF-8"?>
<svg xmlns="http://www.w3.org/2000/svg" xmlns:xlink="http://www.w3.org/1999/xlink" width="16px" height="16px" viewBox="0 0 16 16" version="1.1">
<defs>
<linearGradient id="linear0" gradientUnits="userSpaceOnUse" x1="254" y1="233.5" x2="254" y2="254.666672" gradientTransform="matrix(0.031253,0,0,0.031253,-0.00000190753,6.719393)">
<stop offset="0" style="stop-color:rgb(0%,0%,0%);stop-opacity:0.27451;"/>
<stop offset="1" style="stop-color:rgb(0%,0%,0%);stop-opacity:0;"/>
</linearGradient>
<radialGradient id="radial0" gradientUnits="userSpaceOnUse" cx="450.908936" cy="189.579361" fx="450.908936" fy="189.579361" r="21.166656" gradientTransform="matrix(0.0000000870852,-0.0390662,-0.0703192,-0.0000000507693,26.561465,31.797666)">
<stop offset="0" style="stop-color:rgb(0%,0%,0%);stop-opacity:0.313726;"/>
<stop offset="0.222222" style="stop-color:rgb(0%,0%,0%);stop-opacity:0.27451;"/>
<stop offset="1" style="stop-color:rgb(0%,0%,0%);stop-opacity:0;"/>
</radialGradient>
<radialGradient id="radial1" gradientUnits="userSpaceOnUse" cx="450.908936" cy="189.579361" fx="450.908936" fy="189.579361" r="21.166656" gradientTransform="matrix(-0.0000000870852,0.0390662,0.0703192,0.0000000507693,-10.60226,-3.763739)">
<stop offset="0" style="stop-color:rgb(0%,0%,0%);stop-opacity:0.313726;"/>
<stop offset="0.222222" style="stop-color:rgb(0%,0%,0%);stop-opacity:0.27451;"/>
<stop offset="1" style="stop-color:rgb(0%,0%,0%);stop-opacity:0;"/>
</radialGradient>
<radialGradient id="radial2" gradientUnits="userSpaceOnUse" cx="450.908936" cy="189.579361" fx="450.908936" fy="189.579361" r="21.166656" gradientTransform="matrix(-0.0000000870852,-0.0390662,0.0703192,-0.0000000507693,-10.60226,31.797666)">
<stop offset="0" style="stop-color:rgb(0%,0%,0%);stop-opacity:0.313726;"/>
<stop offset="0.222222" style="stop-color:rgb(0%,0%,0%);stop-opacity:0.27451;"/>
<stop offset="1" style="stop-color:rgb(0%,0%,0%);stop-opacity:0;"/>
</radialGradient>
<radialGradient id="radial3" gradientUnits="userSpaceOnUse" cx="450.908936" cy="189.579361" fx="450.908936" fy="189.579361" r="21.166656" gradientTransform="matrix(0.0000000870852,0.0390662,-0.0703192,0.0000000507693,26.561464,-3.76374)">
<stop offset="0" style="stop-color:rgb(0%,0%,0%);stop-opacity:0.313726;"/>
<stop offset="0.222222" style="stop-color:rgb(0%,0%,0%);stop-opacity:0.27451;"/>
<stop offset="1" style="stop-color:rgb(0%,0%,0%);stop-opacity:0;"/>
</radialGradient>
<linearGradient id="linear1" gradientUnits="userSpaceOnUse" x1="254" y1="-168.666656" x2="254" y2="233.5" gradientTransform="matrix(0.031253,0,0,0.031253,0,6.719391)">
<stop offset="0" style="stop-color:rgb(47.450981%,52.549022%,79.607844%);stop-opacity:1;"/>
<stop offset="1" style="stop-color:rgb(36.078432%,41.960785%,75.294119%);stop-opacity:1;"/>
</linearGradient>
<linearGradient id="linear2" gradientUnits="userSpaceOnUse" x1="254" y1="-168.666656" x2="254" y2="233.5" gradientTransform="matrix(0.031253,0,0,0.031253,0,6.719391)">
<stop offset="0" style="stop-color:rgb(30.19608%,71.372551%,67.450982%);stop-opacity:1;"/>
<stop offset="1" style="stop-color:rgb(14.901961%,65.098041%,60.392159%);stop-opacity:1;"/>
</linearGradient>
<linearGradient id="linear3" gradientUnits="userSpaceOnUse" x1="254" y1="-168.666656" x2="254" y2="233.5" gradientTransform="matrix(0.031253,0,0,0.031253,0,6.719391)">
<stop offset="0" style="stop-color:rgb(100%,71.764708%,30.19608%);stop-opacity:1;"/>
<stop offset="1" style="stop-color:rgb(100%,65.490198%,14.901961%);stop-opacity:1;"/>
</linearGradient>
<linearGradient id="linear4" gradientUnits="userSpaceOnUse" x1="960" y1="1695.118164" x2="960" y2="175.118134" gradientTransform="matrix(0.00826902,0,0,0.00826902,0,0)">
<stop offset="0" style="stop-color:rgb(74.117649%,74.117649%,74.117649%);stop-opacity:1;"/>
<stop offset="1" style="stop-color:rgb(87.843138%,87.843138%,87.843138%);stop-opacity:1;"/>
</linearGradient>
</defs>
<g id="surface1">
<path style=" stroke:none;fill-rule:nonzero;fill:rgb(47.450981%,52.549022%,79.607844%);fill-opacity:0.716129;" d="M 2.226562 1.46875 L 13.652344 1.46875 C 14.058594 1.46875 14.386719 1.796875 14.386719 2.203125 L 14.386719 13.261719 C 14.386719 13.667969 14.058594 14 13.652344 14 L 2.226562 14 C 1.820312 14 1.488281 13.667969 1.488281 13.261719 L 1.488281 2.203125 C 1.488281 1.796875 1.820312 1.46875 2.226562 1.46875 Z M 2.226562 1.46875 "/>
<path style=" stroke:none;fill-rule:nonzero;fill:url(#linear0);" d="M 2.5625 14.015625 L 13.394531 14.015625 L 13.394531 14.679688 L 2.5625 14.679688 Z M 2.5625 14.015625 "/>
<path style=" stroke:none;fill-rule:nonzero;fill:url(#radial0);" d="M 13.394531 14.015625 L 14.71875 14.015625 L 14.71875 13.355469 L 13.394531 13.355469 Z M 13.394531 14.015625 "/>
<path style=" stroke:none;fill-rule:nonzero;fill:url(#radial1);" d="M 2.5625 14.015625 L 1.242188 14.015625 L 1.242188 14.679688 L 2.5625 14.679688 Z M 2.5625 14.015625 "/>
<path style=" stroke:none;fill-rule:nonzero;fill:url(#radial2);" d="M 2.5625 14.015625 L 1.242188 14.015625 L 1.242188 13.355469 L 2.5625 13.355469 Z M 2.5625 14.015625 "/>
<path style=" stroke:none;fill-rule:nonzero;fill:url(#radial3);" d="M 13.394531 14.015625 L 14.71875 14.015625 L 14.71875 14.679688 L 13.394531 14.679688 Z M 13.394531 14.015625 "/>
<path style=" stroke:none;fill-rule:nonzero;fill:url(#linear1);" d="M 2.226562 1.46875 C 1.816406 1.46875 1.488281 1.796875 1.488281 2.203125 L 1.488281 13.261719 C 1.488281 13.667969 1.816406 14 2.226562 14 L 13.652344 14 C 14.058594 14 14.386719 13.667969 14.386719 13.261719 L 14.386719 2.203125 C 14.386719 1.796875 14.058594 1.46875 13.652344 1.46875 Z M 2.226562 1.46875 "/>
<path style=" stroke:none;fill-rule:nonzero;fill:url(#linear2);" d="M 11.886719 1.46875 L 1.488281 10.566406 L 1.488281 13.261719 C 1.488281 13.667969 1.816406 14 2.226562 14 L 13.652344 14 C 14.058594 14 14.386719 13.667969 14.386719 13.261719 L 14.386719 2.203125 C 14.386719 1.796875 14.058594 1.46875 13.652344 1.46875 Z M 11.886719 1.46875 "/>
<path style=" stroke:none;fill-rule:nonzero;fill:url(#linear3);" d="M 14.386719 4.25 L 3.988281 14 L 13.652344 14 C 14.058594 14 14.386719 13.667969 14.386719 13.261719 Z M 14.386719 4.25 "/>
<path style=" stroke:none;fill-rule:nonzero;fill:url(#linear4);" d="M 5.617188 3.257812 C 5.339844 3.261719 5.121094 3.488281 5.125 3.761719 L 5.125 7.347656 C 5.117188 7.386719 5.117188 7.425781 5.125 7.464844 L 5.125 10.378906 C 5.121094 10.558594 5.214844 10.726562 5.371094 10.816406 C 5.527344 10.90625 5.71875 10.90625 5.875 10.816406 C 6.03125 10.726562 6.125 10.558594 6.121094 10.378906 L 6.121094 7.578125 L 6.445312 7.183594 L 8.484375 11.261719 C 8.566406 11.429688 8.734375 11.535156 8.917969 11.539062 C 9.101562 11.542969 9.273438 11.449219 9.363281 11.289062 L 12.011719 6.65625 C 12.101562 6.503906 12.101562 6.308594 12.011719 6.152344 C 11.921875 5.996094 11.753906 5.902344 11.574219 5.902344 C 11.394531 5.90625 11.230469 6.003906 11.144531 6.160156 L 8.960938 9.980469 L 7.136719 6.339844 L 8.984375 4.078125 C 9.113281 3.929688 9.140625 3.71875 9.054688 3.539062 C 8.96875 3.363281 8.785156 3.253906 8.589844 3.257812 C 8.441406 3.261719 8.304688 3.332031 8.214844 3.445312 L 6.121094 6.003906 L 6.121094 3.761719 C 6.125 3.628906 6.070312 3.5 5.976562 3.402344 C 5.878906 3.308594 5.75 3.253906 5.617188 3.257812 Z M 5.617188 3.257812 "/>
<path style=" stroke:none;fill-rule:nonzero;fill:rgb(100%,100%,100%);fill-opacity:0.716129;" d="M 5.617188 3.257812 C 5.339844 3.261719 5.121094 3.488281 5.125 3.761719 L 5.125 3.929688 C 5.121094 3.652344 5.339844 3.425781 5.617188 3.421875 C 5.75 3.421875 5.878906 3.472656 5.976562 3.570312 C 6.070312 3.664062 6.125 3.792969 6.121094 3.929688 L 6.121094 3.761719 C 6.125 3.628906 6.070312 3.5 5.976562 3.402344 C 5.878906 3.308594 5.75 3.253906 5.617188 3.257812 Z M 8.589844 3.257812 C 8.441406 3.261719 8.304688 3.332031 8.214844 3.445312 L 6.121094 6.003906 L 6.121094 6.167969 L 8.214844 3.613281 C 8.304688 3.496094 8.441406 3.429688 8.589844 3.425781 C 8.839844 3.417969 9.054688 3.597656 9.097656 3.839844 C 9.121094 3.695312 9.078125 3.542969 8.980469 3.429688 C 8.882812 3.316406 8.738281 3.253906 8.589844 3.257812 Z M 11.582031 5.902344 C 11.398438 5.902344 11.230469 6.003906 11.144531 6.160156 L 8.960938 9.980469 L 7.21875 6.5 L 7.136719 6.597656 L 7.1875 6.699219 L 7.21875 6.664062 L 8.960938 10.148438 L 11.144531 6.328125 C 11.230469 6.167969 11.398438 6.070312 11.582031 6.070312 C 11.824219 6.070312 12.03125 6.246094 12.070312 6.488281 C 12.097656 6.34375 12.054688 6.195312 11.960938 6.082031 C 11.867188 5.96875 11.730469 5.90625 11.582031 5.902344 Z M 5.125 7.347656 C 5.117188 7.386719 5.117188 7.425781 5.125 7.464844 Z M 5.125 7.347656 "/>
<path style=" stroke:none;fill-rule:nonzero;fill:rgb(0%,0%,0%);fill-opacity:0.235294;" d="M 9.058594 3.949219 C 9.039062 3.988281 9.015625 4.027344 8.984375 4.0625 L 7.136719 6.320312 L 7.265625 6.578125 L 8.984375 4.476562 C 9.109375 4.328125 9.136719 4.121094 9.058594 3.949219 Z M 12.035156 6.59375 C 12.027344 6.609375 12.019531 6.625 12.011719 6.640625 L 9.363281 11.269531 C 9.273438 11.429688 9.101562 11.527344 8.917969 11.523438 C 8.734375 11.515625 8.566406 11.410156 8.484375 11.246094 L 6.445312 7.167969 L 6.121094 7.5625 L 6.121094 7.976562 L 6.445312 7.582031 L 8.484375 11.660156 C 8.566406 11.824219 8.734375 11.929688 8.917969 11.933594 C 9.101562 11.941406 9.273438 11.84375 9.363281 11.683594 L 12.011719 7.054688 C 12.09375 6.914062 12.101562 6.742188 12.035156 6.59375 Z M 5.125 7.742188 C 5.117188 7.78125 5.117188 7.824219 5.125 7.863281 Z M 5.125 10.363281 L 5.125 10.773438 C 5.121094 10.953125 5.214844 11.121094 5.371094 11.210938 C 5.527344 11.300781 5.71875 11.300781 5.875 11.210938 C 6.03125 11.121094 6.125 10.953125 6.121094 10.773438 L 6.121094 10.363281 C 6.125 10.542969 6.03125 10.707031 5.875 10.796875 C 5.71875 10.890625 5.527344 10.890625 5.371094 10.796875 C 5.214844 10.707031 5.121094 10.542969 5.125 10.363281 Z M 5.125 10.363281 "/>
<path style="fill:none;stroke-width:11.338583;stroke-linecap:round;stroke-linejoin:round;stroke:rgb(12.941177%,12.941177%,12.941177%);stroke-opacity:1;stroke-miterlimit:4;" d="M 679.305244 393.978146 C 645.765138 394.450542 619.31097 421.849501 619.783366 454.917211 L 619.783366 888.576609 C 618.838574 893.300568 618.838574 898.024526 619.783366 902.748485 L 619.783366 1255.155795 C 619.31097 1276.886005 630.648471 1297.199027 649.544305 1308.064131 C 668.440139 1318.929236 691.587536 1318.929236 710.483371 1308.064131 C 729.379205 1297.199027 740.716706 1276.886005 740.24431 1255.155795 L 740.24431 916.447965 L 779.453166 868.735983 L 1026.043804 1361.917259 C 1035.964117 1382.230281 1056.277139 1394.984969 1078.479744 1395.457365 C 1100.68235 1395.929761 1121.467767 1384.59226 1132.332872 1365.22403 L 1452.617264 804.962542 C 1463.482369 786.539104 1463.482369 762.919311 1452.617264 744.023477 C 1441.752159 725.127642 1421.439137 713.790142 1399.708928 713.790142 C 1377.978718 714.262538 1358.138092 726.072434 1347.745383 744.968268 L 1083.676099 1206.971418 L 863.067233 766.698478 L 1086.510474 493.181276 C 1102.099537 475.230233 1105.406308 449.720857 1095.013599 427.990647 C 1084.62089 406.732834 1062.418285 393.50575 1038.798492 393.978146 C 1020.847449 394.450542 1004.313594 402.953667 993.44849 416.653147 L 740.24431 726.072434 L 740.24431 454.917211 C 740.716706 438.855752 734.103164 423.266689 722.765663 411.456792 C 710.955767 400.119292 695.366703 393.50575 679.305244 393.978146 Z M 679.305244 393.978146 " transform="matrix(0.00826902,0,0,0.00826902,0,0)"/>
<path style=" stroke:none;fill-rule:nonzero;fill:rgb(100%,100%,100%);fill-opacity:0.392157;" d="M 2.226562 1.46875 C 1.816406 1.46875 1.488281 1.796875 1.488281 2.203125 L 1.488281 2.351562 C 1.488281 1.941406 1.816406 1.613281 2.226562 1.613281 L 13.652344 1.613281 C 14.058594 1.613281 14.386719 1.941406 14.386719 2.351562 L 14.386719 2.203125 C 14.386719 1.796875 14.058594 1.46875 13.652344 1.46875 Z M 2.226562 1.46875 "/>
<path style=" stroke:none;fill-rule:nonzero;fill:rgb(0%,0%,0%);fill-opacity:0.235294;" d="M 2.226562 14.015625 C 1.816406 14.015625 1.488281 13.6875 1.488281 13.28125 L 1.488281 13.074219 C 1.488281 13.480469 1.816406 13.808594 2.226562 13.808594 L 13.652344 13.808594 C 14.058594 13.808594 14.386719 13.480469 14.386719 13.074219 L 14.386719 13.28125 C 14.386719 13.6875 14.058594 14.015625 13.652344 14.015625 Z M 2.226562 14.015625 "/>
<path style="fill:none;stroke-width:3;stroke-linecap:round;stroke-linejoin:round;stroke:rgb(12.941177%,12.941177%,12.941177%);stroke-opacity:1;stroke-miterlimit:4;" d="M 68.743435 -168.629428 L 439.208058 -168.629428 C 450.956936 -168.629428 460.331041 -159.130335 460.331041 -147.506445 L 460.331041 212.334192 C 460.331041 224.08307 450.956936 233.457174 439.208058 233.457174 L 68.743435 233.457174 C 57.119545 233.457174 47.620452 224.08307 47.620452 212.334192 L 47.620452 -147.506445 C 47.620452 -159.130335 57.119545 -168.629428 68.743435 -168.629428 Z M 68.743435 -168.629428 " transform="matrix(0.031253,0,0,0.031253,0,6.719392)"/>
</g>
</svg>
